storage/app/icons/phosphoricons/bold/device-mobile-bold.svg

<svg xmlns="http://www.w3.org/2000/svg" fill="currentColor" viewBox="0 0 256 256"><path d="M176 12H80a28 28 0 0 0-28 28v176a28 28 0 0 0 28 28h96a28 28 0 0 0 28-28V40a28 28 0 0 0-28-28M76 76h104v104H76Zm4-40h96a4 4 0 0 1 4 4v12H76V40a4 4 0 0 1 4-4m96 184H80a4 4 0 0 1-4-4v-12h104v12a4 4 0 0 1-4 4"/></svg>

<svg xmlns="http://www.w3.org/2000/svg" viewBox="0 0 256 256" fill="currentColor"><path d="M176,12H80A28,28,0,0,0,52,40V216a28,28,0,0,0,28,28h96a28,28,0,0,0,28-28V40A28,28,0,0,0,176,12ZM76,76H180V180H76Zm4-40h96a4,4,0,0,1,4,4V52H76V40A4,4,0,0,1,80,36Zm96,184H80a4,4,0,0,1-4-4V204H180v12A4,4,0,0,1,176,220Z"/></svg>
